X: 1
T: Breakfast Epiphanies
R: reel
M: 4/4
L: 1/8
K: Dmaj
D2 AD (3EFG AF|DE Ad cA ED|G2 AG BG AG|Bd gf dc AE|
D2 AD (3EFG AF|DE Ad cA ED|G2 AG BG AG|Bd dc d2 AF:|
Dd (3ddd fd gd|fd gd ad gd|f2 af ed BA|B2 (3BBB BA FE|
Dd (3ddd fd gd|fd gd ad gd|f2 af ed BA|Bd dc d2 AF:|

